X:1
T:Missus in exsilium
T:Daniel Friderici
T:Source : Bicinia sacra---Rostock---J.Richelius---1642. Editor : André Vierendeels (02/07/17).
T:Notes : Original clefs :  C1, C1 Editorial accidentals above the staff m 2 in S 1 : "C-B" notated as 2 quarters in original print 
T:Missus in exsilium
T:©
T:©
C:Daniel Friderici
Z:©
%%score [ 1 2 ]
L:1/8
Q:1/4=120
M:2/2
K:F
V:1 treble nm="Soprano 1" snm="S 1"
V:2 treble nm="Soprano 2" snm="S 2"
V:1
 z8 | d6 cB | A2 B2 c2 A2 | B2 c2 d2 B2 | c2 B2 A2 F2 | G2 F2 F2 ED | E8 | D8 | z4 A2 A2 | %9
w: |Mis- * *||||||sus|in ex-|
 B2 G2 ^F4 | z4 A2 A2 | B3 B B2 B2 | A4 A2 G2 | ^F4 F2 G2 | A4 A2 =B2 | ^c6 d2 | e2 f2 e2 d2 | %17
w: i- li- um,|in ex-|si- li- um est|cae- li pos-|ses- sor et|Or- bis, et|Or- *||
 ^c2 f2 e2 d2 | ^c2 f2 e4 |[M:2/4] d4 ::[M:2/2] z2 f2 d3 e | f6 d2- | d2 c2 B4 | z2 d2 c2 B2 | %24
w: ||bis;|Ex- su- li-|bus Pa-|* tri- am|red- dat ut|
 A4 B2 A2- | AG G3 ^F/E/ F2 | G2 B2 A4 | G4 ^F2 B2 | A2 G2 ^F2 B2 | A4 G4 | z2 B2 A2 G2 | %31
w: il- le su-||am, red- dat|ut il- le|su- * * *|* am,|red- dat ut|
 ^F2 B2 A2 G2 | ^F2 B2 A2 G2- | G^F/E/ F2 !fermata!G4 :| %34
w: il- le su- am,|ut il- le su-|* * * * am|
V:2
 G6 FE | D2 E2 F4- | F2 G2 A2 F2 | G2 A2 B2 G2 | A2 B2 c2 A2 | B2 c2 d4- | d2 ^c=B c4 | d4 A2 A2 | %8
w: Mis- * *|||||||sus in ex-|
 B2 G2 ^F4 | z4 A2 A2 | B2 G2 ^F4 | z4 d2 d2 | c3 c c2 B2 | A4 A2 G2 | ^F4 F2 G2 | A6 =B2 | %16
w: i- li- um|in ex-|i- li- um,|in ex-|i- li- um est|cae- li pos-|ses- sor et|Or- *|
 ^c2 d2 e2 f2 | e2 d2 ^c2 f2 | e2 d3 ^c/=B/ c2 |[M:2/4] d4 ::[M:2/2] z2 d2 f3 e | d2 c3 B B2- | %22
w: |||bis,|Ex- su- li-|bus Pa- * *|
 B2 A2 B2 d2 | c2 B2 A2 G2- | G2 ^F2 G2 A2 | B4 A4 | B2 G2 ^F4 | G2 B2 A2 G2 | ^F2 B2 A2 G2- | %29
w: * tri- am, red-|dat ut il- le|_ su- am, red-|dat il-|le su- am,|red- dat ut il-|le su- * *|
 G2 ^F2 G2 B2 | A2 G2 F2 B2 | A2 G2 F2 B2 | A2 G2 F2 B2 | A4 !fermata!G4 :| %34
w: * * am, red-|dat ut il- le|su- * am, red-|dat ut il- la|su- am|

